X: 322
T: Black Cat Jig, The
R: jig
M: 6/8
Q: 160
L: 1/8
K: Dmin
|: "Dm⁷"d2D DEF | ABA "Am"E2F | "Gm"~G3 GFE | "A7"A,CE GFE |"Dm7"DdA DEF | ABA "Am"E2F |
"Gm"G3 "A7"A,^CE | GFE "Dm"D2c :||: "Dm7"d2e fgf | "A7"e^cA Ace | "Gm"~g3 gfe |
gba "A"gfe |"Dm"d2e ~f3 | "A"ea^g a3 | A^ce Ace | gfe "Dm"d2A :|

